docs/assets/images/opencart.svg

<svg width="50" height="50" viewBox="0 0 50 50" fill="none" xmlns="http://www.w3.org/2000/svg">
<g clip-path="url(#clip0_939_1896)">
<path d="M25.0001 44.4445C35.739 44.4445 44.4445 35.739 44.4445 25.0001C44.4445 14.2612 35.739 5.55566 25.0001 5.55566C14.2612 5.55566 5.55566 14.2612 5.55566 25.0001C5.55566 35.739 14.2612 44.4445 25.0001 44.4445Z" fill="#5FBCE7"/>
<path d="M37.3667 21.3443C36.9778 20.3332 35.15 19.9443 30.7556 19.9443C19.9056 19.9443 17.5334 19.4388 14.7723 16.561C14.6167 16.4055 14.4223 16.4055 14.2667 16.5221C14.1112 16.6388 14.0723 16.8721 14.1889 17.0277C14.3056 17.2221 14.4223 17.4166 14.5389 17.611C15.6278 19.4777 17.2612 22.2777 26.8667 22.2777C27.1389 22.2777 27.4112 22.2777 27.6834 22.2777C27.9945 22.2777 28.3056 22.2777 28.5778 22.2777C32.8167 22.2777 33.6723 22.8221 33.8278 23.1332C34.0223 23.5999 33.0112 24.6499 32.1167 25.5832C31.3 26.3999 30.4056 27.3721 29.8223 28.3443C29.7445 28.4999 29.7834 28.7332 29.9 28.8499C29.9778 28.8888 30.0556 28.9277 30.1334 28.9277C30.2112 28.9277 30.3278 28.8888 30.4056 28.811C31.3778 27.9166 32.35 27.0999 33.2056 26.3999C36.0834 23.9888 37.7945 22.511 37.3667 21.3443Z" fill="white"/>
<path d="M20.1 30.3667C19.0111 30.3667 18.1167 31.2611 18.1167 32.35C18.1167 33.4389 19.0111 34.3334 20.1 34.3334C21.1889 34.3334 22.0834 33.4389 22.0834 32.35C22.0834 31.2611 21.1889 30.3667 20.1 30.3667Z" fill="white"/>
<path d="M27.4111 30.3667C26.3222 30.3667 25.4277 31.2611 25.4277 32.35C25.4277 33.4389 26.3222 34.3334 27.4111 34.3334C28.5 34.3334 29.3944 33.4389 29.3944 32.35C29.4333 31.2611 28.5388 30.3667 27.4111 30.3667Z" fill="white"/>
</g>
<defs>
<clipPath id="clip0_939_1896">
<rect width="38.8889" height="38.8889" fill="white" transform="translate(5.55566 5.55566)"/>
</clipPath>
</defs>
</svg>

<svg xmlns="http://www.w3.org/2000/svg" fill="none" viewBox="0 0 50 50"><g clip-path="url(#a)"><path fill="#5FBCE7" d="M25 44.444c10.739 0 19.444-8.705 19.444-19.444C44.444 14.261 35.74 5.556 25 5.556 14.261 5.556 5.556 14.26 5.556 25 5.556 35.74 14.26 44.444 25 44.444z"/><path fill="#fff" d="M37.367 21.344c-.39-1.01-2.217-1.4-6.611-1.4-10.85 0-13.223-.505-15.984-3.383a.367.367 0 0 0-.505-.039.369.369 0 0 0-.078.506l.35.583c1.089 1.867 2.722 4.667 12.328 4.667H28.578c4.239 0 5.094.544 5.25.855.194.467-.817 1.517-1.711 2.45-.817.817-1.711 1.79-2.295 2.761a.477.477 0 0 0 .078.506c.078.039.156.078.233.078a.42.42 0 0 0 .273-.117 63.788 63.788 0 0 1 2.8-2.411c2.877-2.411 4.588-3.889 4.16-5.056zM20.1 30.367a1.992 1.992 0 0 0-1.983 1.983c0 1.089.894 1.983 1.983 1.983a1.992 1.992 0 0 0 1.983-1.983 1.992 1.992 0 0 0-1.983-1.983zM27.411 30.367a1.992 1.992 0 0 0-1.983 1.983c0 1.089.894 1.983 1.983 1.983a1.992 1.992 0 0 0 1.983-1.983c.04-1.089-.855-1.983-1.983-1.983z"/></g><defs><clipPath id="a"><path fill="#fff" d="M0 0H38.889V38.889H0z" transform="translate(5.556 5.556)"/></clipPath></defs></svg>
